X:1
T: Miss Mary Douglas's Strathspey
C:R. Mackintosh
R:Strathspey
Q: 128
K:Bb
M:4/4
L:1/16
|:D2|B,4 d3B GB3 FD3|B,4 d3B G2c2 c2Bc|B,4 d3B GB3 FD3|E3G F3A BBB2 B2D2|
B,4 d3B GB3 FD3|B,4 d3B G2c2 c2Bc|B,4 d3B GB3 FD3|E3G F3A BBB2 B2g2|
f3B edcB F3B cBAB|f3B edcB A2c2 c2de|f3B edcB F3B cBAB|ABc2 Fe3 dB3 B3g|
f3B edcB F3B cBAB|f3B edcB A2c2 c2de|df3 b3g fd3 c3B|F3G B3c d2B2 B2:|
